**kern	**silbe	**harmony	**phrase	**leadinstrument	**rhyme	**timestamp	**harte
*ICvox	*	*M4/4	*	*	*	*	*M4/4
*VRlead	*	*	*	*	*	*	*
*Hstimme	*	*	*	*	*	*	*
*D:	*	*D:	*	*	*	*	*D:
*M4/4	*	*	*	*	*	*	*
*clefG2	*	*	*	*	*	*	*
r;	.	1r;	.	r	.	0	N.C.
=1	=1	=1	=1	=1	=1	=1	=1
*>Letter>A	*>Letter>A	*>Letter>A	*>Letter>A	*>Letter>A	*>Letter>A	*>Letter>A	*>Letter>A
*>Label>Verse	*>Label>Verse	*>Label>Verse	*>Label>Verse	*>Label>Verse	*>Label>Verse	*>Label>Verse	*>Label>Verse
4.~dd	Wow!	1DMm	newline	voice	.	2.368	D:7
8r	.	.	.	.	.	.	.
8g	I	.	.	.	.	.	.
8g	feel	.	.	.	.	.	.
8a	_	.	.	.	.	.	.
16f	good	.	.	.	A	.	.
[16d	_	.	.	.	.	.	.
=2	=2	=2	=2	=2	=2	=2	=2
4d]	_	1DMm	.	voice	.	4.021	D:7
4r	.	.	.	.	.	.	.
2r	.	.	.	.	.	.	.
=3	=3	=3	=3	=3	=3	=3	=3
4.r	.	1DMm	.	voice	.	5.674	D:7
8d	I	.	.	.	.	.	.
8d	knew	.	.	.	.	.	.
8c	that	.	.	.	.	.	.
8d	I	.	.	.	.	.	.
[8f	would	.	.	.	A	.	.
=4	=4	=4	=4	=4	=4	=4	=4
8f]	_	1DMm	.	voice	.	7.327	D:7
8d	now	.	.	.	.	.	.
4r	.	.	.	.	.	.	.
2r	.	.	.	.	.	.	.
=5	=5	=5	=5	=5	=5	=5	=5
2r	.	1GMm	newline	voice	.	8.98	G:7
8f	I	.	.	.	.	.	.
[8a-	feel	.	.	.	.	.	.
16a-]	_	.	.	.	.	.	.
16g	_	.	.	.	.	.	.
[8f	_	.	.	.	.	.	.
=6	=6	=6	=6	=6	=6	=6	=6
8f]	_	1GMm	.	voice	.	10.619	G:7
16f	good	.	.	.	A	.	.
16g	_	.	.	.	.	.	.
4r	.	.	.	.	.	.	.
2r	.	.	.	.	.	.	.
=7	=7	=7	=7	=7	=7	=7	=7
4.r	.	1DMm	.	voice	.	12.259	D:7
8d	I	.	.	.	.	.	.
8d	knew	.	.	.	.	.	.
8c	that	.	.	.	.	.	.
8d	I	.	.	.	.	.	.
[8f	would	.	.	.	A	.	.
=8	=8	=8	=8	=8	=8	=8	=8
8f]	_	1DMm	.	voice	.	13.899	D:7
8d	now	.	.	.	.	.	.
4r	.	.	.	.	.	.	.
2r	.	.	.	.	.	.	.
=9	=9	=9	=9	=9	=9	=9	=9
2r	.	1AMm	newline	voice	.	15.538	A:7
4r	.	.	.	.	.	.	.
8a	So	.	.	.	.	.	.
[8a	good	.	.	.	A	.	.
=10	=10	=10	=10	=10	=10	=10	=10
8a]	_	1GMm	.	voice	.	17.203	G:7
8r	.	.	.	.	.	.	.
4r	.	.	.	.	.	.	.
4r	.	.	.	.	.	.	.
8g	So	.	.	.	.	.	.
[8g	good	.	.	.	A	.	.
=11	=11	=11	=11	=11	=11	=11	=11
8g]	_	1DMm	.	voice	.	18.868	D:7
8r	.	.	.	.	.	.	.
4r	.	.	.	.	.	.	.
8f	I	.	.	.	.	.	.
8g	got	.	.	.	.	.	.
8f	uh	.	.	.	.	.	.
[8a	you	.	.	.	.	.	.
=12	=12	=12	=12	=12	=12	=12	=12
8a]	_	1DMm	.	voice	.	20.533	D:7
8r	.	.	.	.	.	.	.
4r	.	.	.	.	.	.	.
2r	.	.	.	.	.	.	.
=13	=13	=13	=13	=13	=13	=13	=13
*>Letter>A	*>Letter>A	*>Letter>A	*>Letter>A	*>Letter>A	*>Letter>A	*>Letter>A	*>Letter>A
*>Label>Verse	*>Label>Verse	*>Label>Verse	*>Label>Verse	*>Label>Verse	*>Label>Verse	*>Label>Verse	*>Label>Verse
4.~dd	Wow!	1DMm	newline	voice	.	22.198	D:7
8r	.	.	.	.	.	.	.
8g	I	.	.	.	.	.	.
8g	feel	.	.	.	.	.	.
8a	_	.	.	.	.	.	.
16f	nice	.	.	.	B	.	.
[16d	_	.	.	.	.	.	.
=14	=14	=14	=14	=14	=14	=14	=14
4d]	_	1DMm	.	voice	.	23.87	D:7
4r	.	.	.	.	.	.	.
2r	.	.	.	.	.	.	.
=15	=15	=15	=15	=15	=15	=15	=15
4.r	.	1DMm	.	voice	.	25.543	D:7
8d	like	.	.	.	.	.	.
8d	su-	.	.	.	.	.	.
8c	-gar	.	.	.	.	.	.
8d	and	.	.	.	.	.	.
8f	spice	.	.	.	B	.	.
=16	=16	=16	=16	=16	=16	=16	=16
8e	_	1DMm	.	voice	.	27.215	D:7
4d	_	.	.	.	.	.	.
8r	.	.	.	.	.	.	.
2r	.	.	.	.	.	.	.
=17	=17	=17	=17	=17	=17	=17	=17
2r	.	1GMm	newline	voice	.	28.887	G:7
8f	I	.	.	.	.	.	.
[8a-	feel	.	.	.	.	.	.
8a-]	_	.	.	.	.	.	.
16g	_	.	.	.	.	.	.
[16f	_	.	.	.	.	.	.
=18	=18	=18	=18	=18	=18	=18	=18
8f]	_	1GMm	.	voice	.	30.546	G:7
8f	nice	.	.	.	B	.	.
16g	_	.	.	.	.	.	.
16r	.	.	.	.	.	.	.
8r	.	.	.	.	.	.	.
2r	.	.	.	.	.	.	.
=19	=19	=19	=19	=19	=19	=19	=19
4.r	.	1DMm	.	voice	.	32.205	D:7
8d	like	.	.	.	.	.	.
8d	su-	.	.	.	.	.	.
8c	-gar	.	.	.	.	.	.
8d	and	.	.	.	.	.	.
16f	spice	.	.	.	B	.	.
16e	_	.	.	.	.	.	.
=20	=20	=20	=20	=20	=20	=20	=20
4d	_	1DMm	.	voice	.	33.864	D:7
4r	.	.	.	.	.	.	.
2r	.	.	.	.	.	.	.
=21	=21	=21	=21	=21	=21	=21	=21
2r	.	1AMm	newline	voice	.	35.523	A:7
4r	.	.	.	.	.	.	.
8a	So	.	.	.	.	.	.
[8a	nice	.	.	.	B	.	.
=22	=22	=22	=22	=22	=22	=22	=22
8a]	_	1GMm	.	voice	.	37.171	G:7
8r	.	.	.	.	.	.	.
4r	.	.	.	.	.	.	.
4r	.	.	.	.	.	.	.
8g	So	.	.	.	.	.	.
[8g	nice	.	.	.	B	.	.
=23	=23	=23	=23	=23	=23	=23	=23
8g]	_	1DMm	.	voice	.	38.82	D:7
8r	.	.	.	.	.	.	.
4r	.	.	.	.	.	.	.
8f	I	.	.	.	.	.	.
8g	got	.	.	.	.	.	.
8f	uh	.	.	.	.	.	.
[8a	you	.	.	.	.	.	.
=24	=24	=24	=24	=24	=24	=24	=24
8a]	_	1DMm	.	voice	.	40.468	D:7
8r	.	.	.	.	.	.	.
4r	.	.	.	.	.	.	.
2r	.	.	.	.	.	.	.
=25	=25	=25	=25	=25	=25	=25	=25
*>Letter>B	*>Letter>B	*>Letter>B	*>Letter>B	*>Letter>B	*>Letter>B	*>Letter>B	*>Letter>B
*>Label>Solo	*>Label>Solo	*>Label>Solo	*>Label>Solo	*>Label>Solo	*>Label>Solo	*>Label>Solo	*>Label>Solo
1r	.	1N	newline	saxophone	.	42.117	N.C.
=26	=26	=26	=26	=26	=26	=26	=26
1r	.	1N	.	saxophone	.	43.765	N.C.
=27	=27	=27	=27	=27	=27	=27	=27
1r	.	1N	.	saxophone	.	45.413	N.C.
=28	=28	=28	=28	=28	=28	=28	=28
1r	.	1N	.	saxophone	.	47.062	N.C.
=29	=29	=29	=29	=29	=29	=29	=29
*>Letter>C	*>Letter>C	*>Letter>C	*>Letter>C	*>Letter>C	*>Letter>C	*>Letter>C	*>Letter>C
*>Label>Bridge	*>Label>Bridge	*>Label>Bridge	*>Label>Bridge	*>Label>Bridge	*>Label>Bridge	*>Label>Bridge	*>Label>Bridge
2r	.	1GMm	newline	voice	.	48.71	G:7
4r	.	.	.	.	.	.	.
16f	When	.	.	.	.	.	.
16g	I	.	.	.	.	.	.
8r	.	.	.	.	.	.	.
=30	=30	=30	=30	=30	=30	=30	=30
8a	hold	1GMm	.	voice	.	50.321	G:7
8g	you	.	.	.	.	.	.
4r	.	.	.	.	.	.	.
8.r	.	.	.	.	.	.	.
[16cc	in	.	.	.	.	.	.
16cc]	_	.	.	.	.	.	.
8dd	my	.	.	.	.	.	.
[16dd	arms	.	.	.	C	.	.
=31	=31	=31	=31	=31	=31	=31	=31
2dd]	_	1DMm	.	voice	.	51.932	D:7
4r	.	.	.	.	.	.	.
8.r	.	.	.	.	.	.	.
16d	I	.	.	.	.	.	.
=32	=32	=32	=32	=32	=32	=32	=32
8d	know	1DMm	.	voice	.	53.543	D:7
8c	that	.	.	.	.	.	.
8d	I	.	.	.	.	.	.
[8d	can't	.	.	.	.	.	.
8.d]	_	.	.	.	.	.	.
[16f	do	.	.	.	.	.	.
16f]	_	.	.	.	.	.	.
8g	no	.	.	.	.	.	.
[16a-	wrong	.	.	.	C	.	.
=33	=33	=33	=33	=33	=33	=33	=33
8.a-]	_	1GMm	newline	voice	.	55.155	G:7
16g	_	.	.	.	.	.	.
4f	_	.	.	.	.	.	.
4.r	.	.	.	.	.	.	.
8d	And	.	.	.	.	.	.
=34	=34	=34	=34	=34	=34	=34	=34
8dd	when	1GMm	.	voice	.	56.796	G:7
4cc	I	.	.	.	.	.	.
[8a-	hold	.	.	.	.	.	.
16a-]	_	.	.	.	.	.	.
16g	_	.	.	.	.	.	.
8f	_	.	.	.	.	.	.
8g	you	.	.	.	.	.	.
[8f	in	.	.	.	.	.	.
=35	=35	=35	=35	=35	=35	=35	=35
8f]	_	1AMm	.	voice	.	58.437	A:7
8f	my	.	.	.	.	.	.
2d	arms	.	.	.	C	.	.
8r	.	.	.	.	.	.	.
8f	My	.	.	.	.	.	.
=36	=36	=36	=36	=36	=36	=36	=36
4g#	love	1N	.	voice	.	60.078	N.C.
4a	won't	.	.	.	.	.	.
8a	do	.	.	.	.	.	.
8a	you	.	.	.	.	.	.
8g	no	.	.	.	.	.	.
[8a	harm	.	.	.	C	.	.
=37	=37	=37	=37	=37	=37	=37	=37
*>Letter>A	*>Letter>A	*>Letter>A	*>Letter>A	*>Letter>A	*>Letter>A	*>Letter>A	*>Letter>A
*>Label>Verse	*>Label>Verse	*>Label>Verse	*>Label>Verse	*>Label>Verse	*>Label>Verse	*>Label>Verse	*>Label>Verse
16a]	_	1DMm	newline	voice	.	61.719	D:7
16g	_	.	.	.	.	.	.
8f	_	.	.	.	.	.	.
8.r	.	.	.	.	.	.	.
16a	and	.	.	.	.	.	.
8a	I	.	.	.	.	.	.
[8cc#	feel	.	.	.	.	.	.
4cc#_	_	.	.	.	.	.	.
=38	=38	=38	=38	=38	=38	=38	=38
4cc#]	_	1DMm	.	voice	.	63.379	D:7
2dd	_	.	.	.	.	.	.
8r	.	.	.	.	.	.	.
8f	nice	.	.	.	B	.	.
=39	=39	=39	=39	=39	=39	=39	=39
8e	_	1DMm	.	voice	.	65.039	D:7
4d	_	.	.	.	.	.	.
8d	like	.	.	.	.	.	.
8d	su-	.	.	.	.	.	.
8c	-gar	.	.	.	.	.	.
8d	and	.	.	.	.	.	.
[8c	spice	.	.	.	B	.	.
=40	=40	=40	=40	=40	=40	=40	=40
4c]	_	1DMm	.	voice	.	66.699	D:7
4r	.	.	.	.	.	.	.
2r	.	.	.	.	.	.	.
=41	=41	=41	=41	=41	=41	=41	=41
2r	.	1GMm	newline	voice	.	68.359	G:7
8f	I	.	.	.	.	.	.
[8a-	feel	.	.	.	.	.	.
16a-]	_	.	.	.	.	.	.
16g	_	.	.	.	.	.	.
[8f	_	.	.	.	.	.	.
=42	=42	=42	=42	=42	=42	=42	=42
8f]	_	1GMm	.	voice	.	70.018	G:7
8f	nice	.	.	.	B	.	.
8g	_	.	.	.	.	.	.
8r	.	.	.	.	.	.	.
2r	.	.	.	.	.	.	.
=43	=43	=43	=43	=43	=43	=43	=43
4.r	.	1DMm	.	voice	.	71.677	D:7
8d	like	.	.	.	.	.	.
8d	su-	.	.	.	.	.	.
8c	-gar	.	.	.	.	.	.
8d	and	.	.	.	.	.	.
[8f	spice	.	.	.	B	.	.
=44	=44	=44	=44	=44	=44	=44	=44
16f]	_	1DMm	.	voice	.	73.335	D:7
16e	_	.	.	.	.	.	.
8d	_	.	.	.	.	.	.
4r	.	.	.	.	.	.	.
2r	.	.	.	.	.	.	.
=45	=45	=45	=45	=45	=45	=45	=45
2r	.	1AMm	newline	voice	.	74.994	A:7
4r	.	.	.	.	.	.	.
8a	So	.	.	.	.	.	.
[8a	nice	.	.	.	B	.	.
=46	=46	=46	=46	=46	=46	=46	=46
8a]	_	1GMm	.	voice	.	76.633	G:7
8r	.	.	.	.	.	.	.
4r	.	.	.	.	.	.	.
4r	.	.	.	.	.	.	.
8f	So	.	.	.	.	.	.
[8g	nice	.	.	.	B	.	.
=47	=47	=47	=47	=47	=47	=47	=47
4g]	_	1DMm	.	voice	.	78.271	D:7
8.r	.	.	.	.	.	.	.
16f	'cause	.	.	.	.	.	.
8f	I	.	.	.	.	.	.
8g	got	.	.	.	.	.	.
8f	uh	.	.	.	.	.	.
[8a	you	.	.	.	.	.	.
=48	=48	=48	=48	=48	=48	=48	=48
8a]	_	1DMm	.	voice	.	79.91	D:7
8r	.	.	.	.	.	.	.
4r	.	.	.	.	.	.	.
2r	.	.	.	.	.	.	.
=49	=49	=49	=49	=49	=49	=49	=49
*>Letter>B	*>Letter>B	*>Letter>B	*>Letter>B	*>Letter>B	*>Letter>B	*>Letter>B	*>Letter>B
*>Label>Solo	*>Label>Solo	*>Label>Solo	*>Label>Solo	*>Label>Solo	*>Label>Solo	*>Label>Solo	*>Label>Solo
1r	.	1N	newline	saxophone	.	81.548	N.C.
=50	=50	=50	=50	=50	=50	=50	=50
1r	.	1N	.	saxophone	.	83.207	N.C.
=51	=51	=51	=51	=51	=51	=51	=51
1r	.	1N	.	saxophone	.	84.865	N.C.
=52	=52	=52	=52	=52	=52	=52	=52
1r	.	1N	.	saxophone	.	86.524	N.C.
=53	=53	=53	=53	=53	=53	=53	=53
*>Letter>C	*>Letter>C	*>Letter>C	*>Letter>C	*>Letter>C	*>Letter>C	*>Letter>C	*>Letter>C
*>Label>Bridge	*>Label>Bridge	*>Label>Bridge	*>Label>Bridge	*>Label>Bridge	*>Label>Bridge	*>Label>Bridge	*>Label>Bridge
2r	.	1GMm	newline	voice	.	88.182	G:7
8r	.	.	.	.	.	.	.
16f	When	.	.	.	.	.	.
16g	I	.	.	.	.	.	.
16r	.	.	.	.	.	.	.
8a	hold	.	.	.	.	.	.
16g	you	.	.	.	.	.	.
=54	=54	=54	=54	=54	=54	=54	=54
8f	_	1GMm	.	voice	.	89.802	G:7
8r	.	.	.	.	.	.	.
4r	.	.	.	.	.	.	.
8r	.	.	.	.	.	.	.
16r	.	.	.	.	.	.	.
16cc	in	.	.	.	.	.	.
8.dd	my	.	.	.	.	.	.
[16dd	arms	.	.	.	C	.	.
=55	=55	=55	=55	=55	=55	=55	=55
2dd]	_	1DMm	.	voice	.	91.422	D:7
4r	.	.	.	.	.	.	.
8.r	.	.	.	.	.	.	.
16d	I	.	.	.	.	.	.
=56	=56	=56	=56	=56	=56	=56	=56
8d	know	1DMm	.	voice	.	93.043	D:7
8c	that	.	.	.	.	.	.
8d	I	.	.	.	.	.	.
[8d	can't	.	.	.	.	.	.
8.d]	_	.	.	.	.	.	.
[16f	do	.	.	.	.	.	.
16f]	_	.	.	.	.	.	.
8g	no	.	.	.	.	.	.
[16a-	wrong	.	.	.	C	.	.
=57	=57	=57	=57	=57	=57	=57	=57
8.a-]	_	1GMm	newline	voice	.	94.663	G:7
16g	_	.	.	.	.	.	.
8f	_	.	.	.	.	.	.
8r	.	.	.	.	.	.	.
4r	.	.	.	.	.	.	.
8r	.	.	.	.	.	.	.
8d	And	.	.	.	.	.	.
=58	=58	=58	=58	=58	=58	=58	=58
8dd	when	1GMm	.	voice	.	96.333	G:7
4cc	I	.	.	.	.	.	.
[8a-	hold	.	.	.	.	.	.
16a-]	_	.	.	.	.	.	.
16g	_	.	.	.	.	.	.
8f	_	.	.	.	.	.	.
8g	you	.	.	.	.	.	.
[8f	in	.	.	.	.	.	.
=59	=59	=59	=59	=59	=59	=59	=59
8f]	_	1AMm	.	voice	.	98.004	A:7
8f	my	.	.	.	.	.	.
2d	arms	.	.	.	C	.	.
8r	.	.	.	.	.	.	.
8f	My	.	.	.	.	.	.
=60	=60	=60	=60	=60	=60	=60	=60
4a	love	1N	.	voice	.	99.675	N.C.
4a	can't	.	.	.	.	.	.
8a	do	.	.	.	.	.	.
8a	me	.	.	.	.	.	.
8g	no	.	.	.	.	.	.
[8a	harm	.	.	.	C	.	.
=61	=61	=61	=61	=61	=61	=61	=61
*>Letter>A	*>Letter>A	*>Letter>A	*>Letter>A	*>Letter>A	*>Letter>A	*>Letter>A	*>Letter>A
*>Label>Verse	*>Label>Verse	*>Label>Verse	*>Label>Verse	*>Label>Verse	*>Label>Verse	*>Label>Verse	*>Label>Verse
16a]	_	1DMm	newline	voice	.	101.346	D:7
16g	_	.	.	.	.	.	.
8f	_	.	.	.	.	.	.
8.r	.	.	.	.	.	.	.
16a	and	.	.	.	.	.	.
8a	I	.	.	.	.	.	.
[8cc#	feel	.	.	.	.	.	.
4cc#_	_	.	.	.	.	.	.
=62	=62	=62	=62	=62	=62	=62	=62
4cc#]	_	1DMm	.	voice	.	103.034	D:7
2dd	_	.	.	.	.	.	.
8r	.	.	.	.	.	.	.
16f	nice	.	.	.	B	.	.
16e	_	.	.	.	.	.	.
=63	=63	=63	=63	=63	=63	=63	=63
4.d	_	1DMm	.	voice	.	104.722	D:7
8d	like	.	.	.	.	.	.
8d	su-	.	.	.	.	.	.
8c	-gar	.	.	.	.	.	.
8d	and	.	.	.	.	.	.
[8c	spice	.	.	.	B	.	.
=64	=64	=64	=64	=64	=64	=64	=64
4c]	_	1DMm	.	voice	.	106.411	D:7
4r	.	.	.	.	.	.	.
2r	.	.	.	.	.	.	.
=65	=65	=65	=65	=65	=65	=65	=65
2r	.	1GMm	newline	voice	.	108.099	G:7
8f	I	.	.	.	.	.	.
[8a-	feel	.	.	.	.	.	.
16a-]	_	.	.	.	.	.	.
16g	_	.	.	.	.	.	.
[8f	_	.	.	.	.	.	.
=66	=66	=66	=66	=66	=66	=66	=66
8f]	_	1GMm	.	voice	.	109.77	G:7
8f	nice	.	.	.	B	.	.
16g	_	.	.	.	.	.	.
16r	.	.	.	.	.	.	.
8r	.	.	.	.	.	.	.
2r	.	.	.	.	.	.	.
=67	=67	=67	=67	=67	=67	=67	=67
4.r	.	1DMm	.	voice	.	111.44	D:7
8d	like	.	.	.	.	.	.
8d	su-	.	.	.	.	.	.
8c	-gar	.	.	.	.	.	.
8.d	and	.	.	.	.	.	.
[16f	spice	.	.	.	B	.	.
=68	=68	=68	=68	=68	=68	=68	=68
8f]	_	1DMm	.	voice	.	113.111	D:7
8e	_	.	.	.	.	.	.
8d	_	.	.	.	.	.	.
8r	.	.	.	.	.	.	.
2r	.	.	.	.	.	.	.
=69	=69	=69	=69	=69	=69	=69	=69
2r	.	1AMm	newline	voice	.	114.782	A:7
4r	.	.	.	.	.	.	.
8a	So	.	.	.	.	.	.
[8a	nice	.	.	.	B	.	.
=70	=70	=70	=70	=70	=70	=70	=70
8a]	_	1GMm	.	voice	.	116.451	G:7
8r	.	.	.	.	.	.	.
4r	.	.	.	.	.	.	.
4r	.	.	.	.	.	.	.
8f	So	.	.	.	.	.	.
[8g	nice	.	.	.	B	.	.
=71	=71	=71	=71	=71	=71	=71	=71
4g]	_	1DMm	.	voice	.	118.12	D:7
8.r	.	.	.	.	.	.	.
16f	'cause	.	.	.	.	.	.
8f	I	.	.	.	.	.	.
8g	got	.	.	.	.	.	.
8f	uh	.	.	.	.	.	.
[8a	you	.	.	.	.	.	.
=72	=72	=72	=72	=72	=72	=72	=72
8a]	_	1DMm	.	voice	.	119.789	D:7
8r	.	.	.	.	.	.	.
4r	.	.	.	.	.	.	.
2r	.	.	.	.	.	.	.
=73	=73	=73	=73	=73	=73	=73	=73
*>Letter>A2	*>Letter>A2	*>Letter>A2	*>Letter>A2	*>Letter>A2	*>Letter>A2	*>Letter>A2	*>Letter>A2
*>Label>Verse	*>Label>Verse	*>Label>Verse	*>Label>Verse	*>Label>Verse	*>Label>Verse	*>Label>Verse	*>Label>Verse
4.~dd	Wow!	1DMm	newline	voice	.	121.459	D:7
8r	.	.	.	.	.	.	.
8g	I	.	.	.	.	.	.
8g	feel	.	.	.	.	.	.
8a	_	.	.	.	.	.	.
16f	good	.	.	.	A	.	.
[16d	_	.	.	.	.	.	.
=74	=74	=74	=74	=74	=74	=74	=74
8d]	_	1DMm	.	voice	.	123.132	D:7
8r	.	.	.	.	.	.	.
4r	.	.	.	.	.	.	.
2r	.	.	.	.	.	.	.
=75	=75	=75	=75	=75	=75	=75	=75
4.r	.	1DMm	.	voice	.	124.805	D:7
8d	I	.	.	.	.	.	.
8d	knew	.	.	.	.	.	.
8c	that	.	.	.	.	.	.
8d	I	.	.	.	.	.	.
[8f	would	.	.	.	A	.	.
=76	=76	=76	=76	=76	=76	=76	=76
8f]	_	1DMm	.	voice	.	126.478	D:7
8d	now	.	.	.	.	.	.
4r	.	.	.	.	.	.	.
2r	.	.	.	.	.	.	.
=77	=77	=77	=77	=77	=77	=77	=77
2r	.	1GMm	newline	voice	.	128.151	G:7
8f	I	.	.	.	.	.	.
[8a-	feel	.	.	.	.	.	.
8.a-]	_	.	.	.	.	.	.
16g	_	.	.	.	.	.	.
=78	=78	=78	=78	=78	=78	=78	=78
8f	_	1GMm	.	voice	.	129.842	G:7
16f	good	.	.	.	A	.	.
16g	_	.	.	.	.	.	.
4r	.	.	.	.	.	.	.
2r	.	.	.	.	.	.	.
=79	=79	=79	=79	=79	=79	=79	=79
4.r	.	1DMm	.	voice	.	131.533	D:7
8d	I	.	.	.	.	.	.
8f	knew	.	.	.	.	.	.
8g	that	.	.	.	.	.	.
8a	I	.	.	.	.	.	.
16a	would	.	.	.	A	.	.
16g	_	.	.	.	.	.	.
=80	=80	=80	=80	=80	=80	=80	=80
4f	_	1DMm	.	voice	.	133.224	D:7
4r	.	.	.	.	.	.	.
2r	.	.	.	.	.	.	.
=81	=81	=81	=81	=81	=81	=81	=81
2r	.	1AMm	newline	voice	.	134.915	A:7
4r	.	.	.	.	.	.	.
8a	So	.	.	.	.	.	.
[8a	good	.	.	.	A	.	.
=82	=82	=82	=82	=82	=82	=82	=82
8a]	_	1GMm	.	voice	.	136.573	G:7
8r	.	.	.	.	.	.	.
4r	.	.	.	.	.	.	.
4r	.	.	.	.	.	.	.
8g	So	.	.	.	.	.	.
[8g	good	.	.	.	A	.	.
=83	=83	=83	=83	=83	=83	=83	=83
8g]	_	1DMm	.	voice	.	138.23	D:7
8r	.	.	.	.	.	.	.
8.r	.	.	.	.	.	.	.
16f	'cause	.	.	.	.	.	.
8f	I	.	.	.	.	.	.
8g	got	.	.	.	.	.	.
8f	uh	.	.	.	.	.	.
[8a	you	.	.	.	.	.	.
=84	=84	=84	=84	=84	=84	=84	=84
8a]	_	1DMm	.	voice	.	139.888	D:7
8r	.	.	.	.	.	.	.
4r	.	.	.	.	.	.	.
2r	.	.	.	.	.	.	.
=85	=85	=85	=85	=85	=85	=85	=85
2r	.	1AMm	newline	voice	.	141.545	A:7
4r	.	.	.	.	.	.	.
8a	So	.	.	.	.	.	.
[8a	good	.	.	.	A	.	.
=86	=86	=86	=86	=86	=86	=86	=86
8a]	_	1GMm	.	voice	.	143.224	G:7
8r	.	.	.	.	.	.	.
4r	.	.	.	.	.	.	.
4r	.	.	.	.	.	.	.
8g	So	.	.	.	.	.	.
[8g	good	.	.	.	A	.	.
=87	=87	=87	=87	=87	=87	=87	=87
8g]	_	1DMm	.	voice	.	144.903	D:7
8r	.	.	.	.	.	.	.
8.r	.	.	.	.	.	.	.
16f	'cause	.	.	.	.	.	.
8f	I	.	.	.	.	.	.
8g	got	.	.	.	.	.	.
8f	uh	.	.	.	.	.	.
16a	you	.	.	.	.	.	.
16g	_	.	.	.	.	.	.
=88	=88	=88	=88	=88	=88	=88	=88
1r	.	1DMm	.	voice	.	146.582	D:7
=89	=89	=89	=89	=89	=89	=89	=89
2r	.	1AMm	newline	voice	.	148.262	A:7
4r	.	.	.	.	.	.	.
8a	So	.	.	.	.	.	.
[8a	good	.	.	.	A	.	.
=90	=90	=90	=90	=90	=90	=90	=90
8a]	_	1GMm	.	voice	.	150.074	G:7
8r	.	.	.	.	.	.	.
4r	.	.	.	.	.	.	.
4r	.	.	.	.	.	.	.
8g	So	.	.	.	.	.	.
16g	good	.	.	.	A	.	.
16f	_	.	.	.	.	.	.
=91	=91	=91	=91	=91	=91	=91	=91
8d	_	1DMm	.	voice	.	151.886	D:7
8r	.	.	.	.	.	.	.
4r	.	.	.	.	.	.	.
8f	I	.	.	.	.	.	.
8g	got	.	.	.	.	.	.
8f	uh	.	.	.	.	.	.
16a	you	.	.	.	.	.	.
16g	_	.	.	.	.	.	.
=92	=92	=92	=92	=92	=92	=92	=92
4f	_	1DMm	.	voice	.	153.698	D:7
4r	.	.	.	.	.	.	.
2r	.	.	.	.	.	.	.
=93	=93	=93	=93	=93	=93	=93	=93
1r	.	1DMm	.	voice	.	155.51	D:7
=94	=94	=94	=94	=94	=94	=94	=94
4~dd	Hey!	1DMm	.	voice	.	157.323	D:7
4r	.	.	.	.	.	.	.
2r	.	.	.	.	.	.	.
=95	=95	=95	=95	=95	=95	=95	=95
1r	.	1DMm	newline	trumpet	.	159.135	D:9
r;	.	1r;	.	r	.	165.512	N.C.
r;	.	1r;	.	r	.	168.777	N.C.
*-	*-	*-	*-	*-	*-	*-	*-
!!!BillboardChartDate: 1965/11/27
!!!BillboardPeak: 3
!!!BillboardWeeksOnChart: 12
!!!COC: James Brown
!!!ENC: Nathaniel Condit-Schultz
!!!EST: Awating manual error checking and editing.
!!!OTL: I Got You (I Feel Good)
!!!RDF**chordsym: original McGill chord annotation + (implied pitch class set, with bass pitch in first position)
!!!RDF**harmony: **recip + pitch class of root + harmonic quality
!!!RDF**leadinstrument: original McGill primary instrumentation annotation
!!!RDF**phrase: newline = linebreak in original McGill transcription
!!!RDF**timestamp: McGill audio timestamp in seconds
!!!RDT: 2017/01/12/
!!!SampleActualRank: 9
!!!SampleID#: 0314
!!!SampleTargetRank: 8
